shader_type canvas_item;
uniform float alpha = 0.0;
uniform vec4 color : source_color;

void vertex() {
	// Called for every vertex the material is visible on.
}

void fragment() {
	vec4 base_color = texture(TEXTURE, UV);
	COLOR = mix(base_color, color, alpha);
	COLOR.a = base_color.a;
}

//void light() {
	// Called for every pixel for every light affecting the CanvasItem.
	// Uncomment to replace the default light processing function with this one.
//}
